Yaru++/status/16/dropboxstatus-busy.svg

<svg height="16" width="16" xmlns="http://www.w3.org/2000/svg"><path d="m4.2166041 1.1915904-4.20835575 2.5250135 3.36668465 2.5118834-3.374933 2.53141 4.2166041 2.5317457 3.3666846-2.5250117-4.2083557-2.525014 4.2083557-2.5250134 4.2083563 2.5381428-4.2083563 2.5118846 1.4959026 1.122788c.7694974-1.220928 2.1109117-1.9623553 3.5541237-1.9644593.904376.00253 1.784006.2955273 2.508602.836738l.02466-.0148133-3.374934-2.505234 3.366686-2.5250132-4.208355-2.5250135-3.3666853 2.5118834-3.3666846-2.5118834zm8.4167109 7.5750409c-1.859336 0-3.3666843 1.5073477-3.3666843 3.3666837s1.5073483 3.366685 3.3666843 3.366685 3.366685-1.507349 3.366685-3.366685-1.507349-3.3666837-3.366685-3.3666837zm-5.0500263.8416707-3.3666848 2.525013-.8416712-.504674v.504674l4.208356 2.525014 1.24281-.744686c-.262314-.556958-.3992367-1.164704-.401106-1.780304-.0002014-.564802.1132893-1.123882.3337053-1.643866l-1.1783387-.883755zm5.0500263 0a2.5250135 2.5250135 0 0 1 2.525014 2.525013h-.841672a1.6833423 1.6833423 0 0 0 -1.683342-1.683342zm-2.525013 2.525013h.841671a1.6833423 1.6833423 0 0 0 1.683342 1.683342v.841672a2.5250135 2.5250135 0 0 1 -2.525013-2.525014z" fill="#fdfeff" stroke-width=".727273"/></svg>

<?xml version="1.0" encoding="UTF-8" standalone="no"?>
<svg
   xmlns:dc="http://purl.org/dc/elements/1.1/"
   xmlns:cc="http://creativecommons.org/ns#"
   xmlns:rdf="http://www.w3.org/1999/02/22-rdf-syntax-ns#"
   xmlns:svg="http://www.w3.org/2000/svg"
   xmlns="http://www.w3.org/2000/svg"
   xmlns:sodipodi="http://sodipodi.sourceforge.net/DTD/sodipodi-0.dtd"
   xmlns:inkscape="http://www.inkscape.org/namespaces/inkscape"
   height="16"
   width="16"
   version="1.1"
   id="svg4"
   sodipodi:docname="dropboxstatus-busy.svg"
   inkscape:version="0.92.5 (2060ec1f9f, 2020-04-08)">
  <metadata
     id="metadata10">
    <rdf:RDF>
      <cc:Work
         rdf:about="">
        <dc:format>image/svg+xml</dc:format>
        <dc:type
           rdf:resource="http://purl.org/dc/dcmitype/StillImage" />
        <dc:title></dc:title>
      </cc:Work>
    </rdf:RDF>
  </metadata>
  <defs
     id="defs8" />
  <sodipodi:namedview
     pagecolor="#ffffff"
     bordercolor="#666666"
     borderopacity="1"
     objecttolerance="10"
     gridtolerance="10"
     guidetolerance="10"
     inkscape:pageopacity="0"
     inkscape:pageshadow="2"
     inkscape:window-width="1920"
     inkscape:window-height="1016"
     id="namedview6"
     showgrid="false"
     inkscape:zoom="29.283478"
     inkscape:cx="9.4946252"
     inkscape:cy="10.844578"
     inkscape:window-x="0"
     inkscape:window-y="27"
     inkscape:window-maximized="1"
     inkscape:current-layer="svg4" />
  <path
     d="M 4.2166041,1.1915904 0.00824835,3.7166039 3.374933,6.2284873 0,8.7598973 4.2166041,11.291643 7.5832887,8.7666313 3.374933,6.2416173 7.5832887,3.7166039 11.791645,6.2547467 7.5832887,8.7666313 9.0791913,9.8894193 C 9.8486887,8.6684913 11.190103,7.927064 12.633315,7.92496 c 0.904376,0.00253 1.784006,0.2955273 2.508602,0.836738 L 15.166577,8.7468847 11.791643,6.2416507 15.158329,3.7166375 10.949974,1.191624 7.5832887,3.7035074 4.2166041,1.191624 Z m 8.4167109,7.5750409 c -1.859336,0 -3.3666843,1.5073477 -3.3666843,3.3666837 0,1.859336 1.5073483,3.366685 3.3666843,3.366685 C 14.492651,15.5 16,13.992651 16,12.133315 16,10.273979 14.492651,8.7666313 12.633315,8.7666313 Z M 7.5832887,9.608302 4.2166039,12.133315 3.3749327,11.628641 v 0.504674 l 4.208356,2.525014 1.24281,-0.744686 C 8.5637847,13.356685 8.426862,12.748939 8.4249927,12.133339 8.4247913,11.568537 8.538282,11.009457 8.758698,10.489473 L 7.5803593,9.605718 Z m 5.0500263,0 a 2.5250135,2.5250135 0 0 1 2.525014,2.525013 h -0.841672 a 1.6833423,1.6833423 0 0 0 -1.683342,-1.683342 z m -2.525013,2.525013 h 0.841671 a 1.6833423,1.6833423 0 0 0 1.683342,1.683342 v 0.841672 a 2.5250135,2.5250135 0 0 1 -2.525013,-2.525014 z"
     id="path2"
     inkscape:connector-curvature="0"
     style="fill:#fdfeff;stroke-width:0.72727281" />
</svg>
